X: 20462
T: Maggies Lamentation
%R: air, strathspey
B: James Oswald "The Caledonian Pocket Companion" v.2 p.46 #2
Z: 2019 John Chambers <jc:trillian.mit.edu>
M: C
L: 1/8
K: D
"_Plentive"A |\
D2 (d/e/f) {f}e3 (d/c/) | {e}d2 Tc>B {B}A3 d | B2 A>G F>Ad>F | {F}E4 z2 A>F | D2 (a<f) {f}Te3 d |
F2 (a<f) {f}e3 d | (c<a) (e<f) (c2 TB>)A | A4 z3 :: =c | (c2 B>A) (A2 G>)e | (F>A) (d>g) {f}e3 A | (B>A) (g>f)
{f}e3 A | B>A g>f {f}e3 E | (E>D)(D>G) (G>F)(F>B) | (B>A)(A>d) {d}c3 d | {c}B3 A [GG,]>D B(A/G/) | F2 TE>D D3 :|
